X:27
T:Rolling in the Rye Grass
T:Shannon Breeze
M:4/4
L:1/8
K:D
"D"A3 F DFAF|"G"G2 BG dGBG|"D"ABAF DFAF|"G"GBAF "A"E2"D"D2:|!
"D"ABde f2 df|"G"g2 eg fedB|"D"ABde f2df|"G"afdf "A"e2"D"d2:|

